X:6221
T:Giga
C:La Ciapa Rusa: ten .. 1d
M:6/8
L:1/8
K:G
Bcd|B2d B2d|d2c ccd|c2d c2d|e2d Bcd|\
B2d B2d|d2c d^cd|f2d cBA|G6-|G3:|
|:d2d|f3e3|d2B ded|d2c cdc|c2B d^cd|\
f3e3|d2B ded|d2c cBA|G6-|G3:|


